X: 4396
T: SWISS POLKA
R: Polka
%R: polka
B: James Kerr "Merry Melodies" v.4 p.43 #396
Z: 2016 John Chambers <jc:trillian.mit.edu>
M: 2/4
L: 1/16
K: D
|:\
A2AB A2AB | (A2f2) d4 | (A2g2) e4 | (A2f2) d4 |\
A2AB A2AB | (A2f2) d4 | A2g2e2c2 | d6 z2 H::\
e2(3(ded) B2^g2 | a2c2 e4 | d2B2 e4 | c2A2 e4 |\
e2(3(ded) B2^g2 | a2A2c2f2 | e2E2^G2B2 | c2[a2c2][a2c2] "_D.C."z2 :|

%%sep 1 1 500
%%sep 1 1 500

